suite-common/icons/assets/icons/chevronUpAndDown.svg

<svg xmlns="http://www.w3.org/2000/svg" fill="none" viewBox="0 0 24 24">
  <path fill="#000" fill-rule="evenodd" d="M11.54 4.437c-.243.142-4.018 3.915-4.12 4.119a1.2 1.2 0 0 0-.089.362.96.96 0 0 0 .575.947c.175.073.541.07.725-.006.102-.042.661-.574 1.759-1.67L12 6.58l1.59 1.589c1.706 1.703 1.761 1.748 2.152 1.75.707.003 1.163-.807.799-1.419-.146-.244-3.927-3.995-4.129-4.096a.96.96 0 0 0-.872.033m3.9 9.653c-.106.032-.544.445-1.79 1.685L12 17.418l-1.63-1.626c-1.469-1.466-1.648-1.63-1.81-1.673a.98.98 0 0 0-1.099.419c-.105.17-.121.234-.121.479 0 .236.018.313.107.463.154.258 3.929 4.01 4.141 4.116.26.129.616.116.872-.033.13-.076.889-.808 2.166-2.09 1.913-1.92 1.968-1.979 2.038-2.205.232-.748-.456-1.409-1.224-1.178"/>
</svg>

<svg xmlns="http://www.w3.org/2000/svg" fill="none" viewBox="0 0 24 24"><path d="M11.540 4.437 C 11.297 4.579,7.522 8.352,7.420 8.556 C 7.382 8.632,7.342 8.794,7.331 8.918 C 7.295 9.312,7.538 9.711,7.906 9.865 C 8.081 9.938,8.447 9.935,8.631 9.859 C 8.733 9.817,9.292 9.285,10.390 8.189 L 12.000 6.580 13.590 8.169 C 15.296 9.872,15.351 9.917,15.742 9.919 C 16.449 9.922,16.905 9.112,16.541 8.500 C 16.395 8.256,12.614 4.505,12.412 4.404 C 12.152 4.274,11.796 4.288,11.540 4.437 M15.440 14.090 C 15.334 14.122,14.896 14.535,13.650 15.775 L 12.000 17.418 10.370 15.792 C 8.901 14.326,8.722 14.162,8.560 14.119 C 8.125 14.004,7.688 14.171,7.461 14.538 C 7.356 14.708,7.340 14.772,7.340 15.017 C 7.340 15.253,7.358 15.330,7.447 15.480 C 7.601 15.738,11.376 19.490,11.588 19.596 C 11.848 19.725,12.204 19.712,12.460 19.563 C 12.590 19.487,13.349 18.755,14.626 17.473 C 16.539 15.553,16.594 15.494,16.664 15.268 C 16.896 14.520,16.208 13.859,15.440 14.090 " stroke="none" fill-rule="evenodd" fill="black"></path></svg>
